swiss/communes/5827.svg

<?xml version="1.0" encoding="UTF-8" standalone="no"?>
<svg
   xmlns:dc="http://purl.org/dc/elements/1.1/"
   xmlns:cc="http://creativecommons.org/ns#"
   xmlns:rdf="http://www.w3.org/1999/02/22-rdf-syntax-ns#"
   xmlns:svg="http://www.w3.org/2000/svg"
   xmlns="http://www.w3.org/2000/svg"
   xmlns:xlink="http://www.w3.org/1999/xlink"
   xmlns:sodipodi="http://sodipodi.sourceforge.net/DTD/sodipodi-0.dtd"
   xmlns:inkscape="http://www.inkscape.org/namespaces/inkscape"
   height="763"
   width="603"
   version="1.0"
   id="svg20"
   sodipodi:version="0.32"
   inkscape:version="0.46"
   sodipodi:docname="Trey-coat of arms.svg"
   sodipodi:docbase="C:\Users\Camilo\Documents\Escudos de Suiza"
   inkscape:output_extension="org.inkscape.output.svg.inkscape">
  <metadata
     id="metadata31">
    <rdf:RDF>
      <cc:Work
         rdf:about="">
        <dc:format>image/svg+xml</dc:format>
        <dc:type
           rdf:resource="http://purl.org/dc/dcmitype/StillImage" />
        <dc:date>29-JUN-2010</dc:date>
        <dc:creator>
          <cc:Agent>
            <dc:title>Aliman5040</dc:title>
          </cc:Agent>
        </dc:creator>
        <cc:license
           rdf:resource="http://creativecommons.org/licenses/GPL/2.0/" />
        <dc:coverage />
        <dc:description />
        <dc:subject>
          <rdf:Bag />
        </dc:subject>
        <dc:language />
        <dc:title>Wappen Gemeinde Trey</dc:title>
      </cc:Work>
      <cc:License
         rdf:about="http://creativecommons.org/licenses/GPL/2.0/">
        <cc:permits
           rdf:resource="http://web.resource.org/cc/Reproduction" />
        <cc:permits
           rdf:resource="http://web.resource.org/cc/Distribution" />
        <cc:requires
           rdf:resource="http://web.resource.org/cc/Notice" />
        <cc:permits
           rdf:resource="http://web.resource.org/cc/DerivativeWorks" />
        <cc:requires
           rdf:resource="http://web.resource.org/cc/ShareAlike" />
        <cc:requires
           rdf:resource="http://web.resource.org/cc/SourceCode" />
      </cc:License>
    </rdf:RDF>
  </metadata>
  <defs
     id="defs29">
    <inkscape:perspective
       sodipodi:type="inkscape:persp3d"
       inkscape:vp_x="0 : 381.5 : 1"
       inkscape:vp_y="0 : 1000 : 0"
       inkscape:vp_z="603 : 381.5 : 1"
       inkscape:persp3d-origin="301.5 : 254.33333 : 1"
       id="perspective5149" />
    <linearGradient
       id="linearGradient2893">
      <stop
         style="stop-color:#ffffff;stop-opacity:0.3137255;"
         offset="0"
         id="stop2895" />
      <stop
         id="stop2897"
         offset="0.19"
         style="stop-color:#ffffff;stop-opacity:0.25098041;" />
      <stop
         style="stop-color:#6b6b6b;stop-opacity:0.1254902;"
         offset="0.60000002"
         id="stop2901" />
      <stop
         style="stop-color:#000000;stop-opacity:0.1254902;"
         offset="1"
         id="stop2899" />
    </linearGradient>
    <radialGradient
       inkscape:collect="always"
       xlink:href="#linearGradient2893"
       id="radialGradient3236"
       gradientUnits="userSpaceOnUse"
       gradientTransform="matrix(1.215027,1.531577e-24,1.464684e-23,1.266667,-839.1924,-490.4894)"
       cx="858.04236"
       cy="579.93323"
       fx="858.04236"
       fy="579.93323"
       r="300" />
    <inkscape:perspective
       id="perspective5197"
       inkscape:persp3d-origin="372.04724 : 350.78739 : 1"
       inkscape:vp_z="744.09448 : 526.18109 : 1"
       inkscape:vp_y="0 : 1000 : 0"
       inkscape:vp_x="0 : 526.18109 : 1"
       sodipodi:type="inkscape:persp3d" />
    <inkscape:perspective
       id="perspective3674"
       inkscape:persp3d-origin="372.04724 : 350.78739 : 1"
       inkscape:vp_z="744.09448 : 526.18109 : 1"
       inkscape:vp_y="0 : 1000 : 0"
       inkscape:vp_x="0 : 526.18109 : 1"
       sodipodi:type="inkscape:persp3d" />
  </defs>
  <sodipodi:namedview
     inkscape:window-height="720"
     inkscape:window-width="1280"
     inkscape:pageshadow="2"
     inkscape:pageopacity="0.0"
     guidetolerance="10.0"
     gridtolerance="10.0"
     objecttolerance="10.0"
     borderopacity="1.0"
     bordercolor="#666666"
     pagecolor="#ffffff"
     id="base"
     inkscape:zoom="0.3355177"
     inkscape:cx="325.00427"
     inkscape:cy="268.15976"
     inkscape:window-x="-8"
     inkscape:window-y="-8"
     inkscape:current-layer="layer2"
     showgrid="true"
     showguides="true">
    <inkscape:grid
       type="xygrid"
       id="grid5151"
       visible="true"
       enabled="true" />
  </sodipodi:namedview>
  <g
     inkscape:groupmode="layer"
     id="layer1"
     inkscape:label="Fond écu"
     style="display:inline"
     sodipodi:insensitive="true">
    <path
       id="path1899"
       d="M 1.5,1.49998 L 1.5,460.3679 C 1.5,626.6785 135.81456,761.5 301.49999,761.5 C 467.18543,761.5 601.5,626.6785 601.5,460.3679 L 601.5,1.49998 L 1.5,1.49998 z"
       style="fill:#e20909;fill-opacity:1" />
  </g>
  <g
     inkscape:groupmode="layer"
     id="layer2"
     inkscape:label="Meubles"
     style="display:inline"
     sodipodi:insensitive="true">
    <path
       id="rect4514"
       style="opacity:1;fill:#ffffff;fill-opacity:1;fill-rule:evenodd;stroke:#000000;stroke-width:3;stroke-linecap:butt;stroke-linejoin:miter;stroke-miterlimit:4;stroke-dasharray:none;stroke-opacity:1"
       d="M 302.46875,1.5 L 302.46875,761.5 C 302.14543,761.50103 301.82356,761.5 301.5,761.5 C 135.81453,761.5 1.5,626.6856 1.5,460.375 L 1.5,1.5 L 302.46875,1.5 z M 301.5,107 L 14.25,547.4375 C 25.986697,586.50181 45.396563,622.21829 70.75,652.8125 L 301.5,299 L 532.25,652.8125 C 557.60345,622.21829 577.01329,586.50181 588.75,547.4375 L 301.5,107 z" />
    <g
       id="g4478"
       transform="matrix(3.2725954,0,0,3.2725954,-2039.052,-1686.1175)">
      <path
         sodipodi:nodetypes="cccc"
         id="path4476"
         d="M 751,543 L 787,543 L 769,561 L 751,543 z"
         style="opacity:1;fill:#ffffff;fill-opacity:1;fill-rule:evenodd;stroke:#000000;stroke-width:1;stroke-linecap:butt;stroke-linejoin:miter;stroke-miterlimit:4;stroke-dasharray:none;stroke-opacity:1" />
      <path
         sodipodi:nodetypes="ccccccccccccccccc"
         id="path3704"
         d="M 762.41856,544.73522 L 745,568 C 739,577 746,584 750,578 L 762,557 L 750,578 C 747,584 761,590 763,583 L 766,558 L 763,583 C 763,591 779.47022,589 778,582 L 771,558 L 778,582 C 779,587 792,585 789,579 L 776,558 L 789,579 C 792,584 802,578 797.64795,573 L 775,544.58063 C 771,539 767,539 762.41856,544.73522 z"
         style="opacity:1;fill:#ffffff;fill-opacity:1;fill-rule:evenodd;stroke:#000000;stroke-width:1;stroke-linecap:butt;stroke-linejoin:miter;stroke-miterlimit:4;stroke-dasharray:none;stroke-opacity:1" />
    </g>
    <g
       id="g4482"
       transform="matrix(3.2725954,0,0,3.2725954,-2402.3101,-1686.1175)"
       style="fill:#e20909;fill-opacity:1">
      <path
         style="opacity:1;fill:#e20909;fill-opacity:1;fill-rule:evenodd;stroke:#000000;stroke-width:1;stroke-linecap:butt;stroke-linejoin:miter;stroke-miterlimit:4;stroke-dasharray:none;stroke-opacity:1"
         d="M 751,543 L 787,543 L 769,561 L 751,543 z"
         id="path4484"
         sodipodi:nodetypes="cccc" />
      <path
         style="opacity:1;fill:#e20909;fill-opacity:1;fill-rule:evenodd;stroke:#000000;stroke-width:1;stroke-linecap:butt;stroke-linejoin:miter;stroke-miterlimit:4;stroke-dasharray:none;stroke-opacity:1"
         d="M 762.41856,544.73522 L 745,568 C 739,577 746,584 750,578 L 762,557 L 750,578 C 747,584 761,590 763,583 L 766,558 L 763,583 C 763,591 779.47022,589 778,582 L 771,558 L 778,582 C 779,587 792,585 789,579 L 776,558 L 789,579 C 792,584 802,578 797.64795,573 L 775,544.58063 C 771,539 767,539 762.41856,544.73522 z"
         id="path4486"
         sodipodi:nodetypes="ccccccccccccccccc" />
    </g>
    <g
       transform="matrix(3.2725954,0,0,3.2725954,-2216.681,-1244.3171)"
       id="g4488">
      <path
         sodipodi:nodetypes="cccc"
         id="path4490"
         d="M 751,543 L 787,543 L 769,561 L 751,543 z"
         style="opacity:1;fill:#ffffff;fill-opacity:1;fill-rule:evenodd;stroke:#000000;stroke-width:1;stroke-linecap:butt;stroke-linejoin:miter;stroke-miterlimit:4;stroke-dasharray:none;stroke-opacity:1" />
      <path
         sodipodi:nodetypes="ccccccccccccccccc"
         id="path4492"
         d="M 762.41856,544.73522 L 745,568 C 739,577 746,584 750,578 L 762,557 L 750,578 C 747,584 761,590 763,583 L 766,558 L 763,583 C 763,591 779.47022,589 778,582 L 771,558 L 778,582 C 779,587 792,585 789,579 L 776,558 L 789,579 C 792,584 802,578 797.64795,573 L 775,544.58063 C 771,539 767,539 762.41856,544.73522 z"
         style="opacity:1;fill:#ffffff;fill-opacity:1;fill-rule:evenodd;stroke:#000000;stroke-width:1;stroke-linecap:butt;stroke-linejoin:miter;stroke-miterlimit:4;stroke-dasharray:none;stroke-opacity:1" />
    </g>
    <g
       id="g4526"
       transform="matrix(3.2725954,0,0,3.2725954,-2216.681,-1244.3171)"
       style="fill:#e20909;fill-opacity:1">
      <path
         style="opacity:1;fill:#e20909;fill-opacity:1;fill-rule:evenodd;stroke:#000000;stroke-width:1;stroke-linecap:butt;stroke-linejoin:miter;stroke-miterlimit:4;stroke-dasharray:none;stroke-opacity:1"
         d="M 751,543 L 768.47068,543 L 769,561 L 751,543 z"
         id="path4528"
         sodipodi:nodetypes="cccc" />
      <path
         style="opacity:1;fill:#e20909;fill-opacity:1;fill-rule:evenodd;stroke:#000000;stroke-width:1;stroke-linecap:butt;stroke-linejoin:miter;stroke-miterlimit:4;stroke-dasharray:none;stroke-opacity:1"
         d="M 762.41856,544.73522 L 745,568 C 739,577 746,584 750,578 L 762,557 L 750,578 C 747,584 761,590 763,583 L 766,558 L 763,583 C 763,586.5624 766.26591,588.14188 769.75929,588.17993 L 769.42119,540.43677 C 767.19544,540.21452 764.89172,541.63923 762.41856,544.73522 z"
         id="path4530"
         sodipodi:nodetypes="ccccccccccc" />
    </g>
  </g>
  <g
     inkscape:groupmode="layer"
     id="layer3"
     inkscape:label="Reflet final"
     style="display:inline"
     sodipodi:insensitive="true">
    <path
       style="fill:url(#radialGradient3236);fill-opacity:1"
       d="M 1.5,1.5 L 1.5,460.3679 C 1.5,626.67854 135.81454,761.5 301.49993,761.5 C 467.1854,761.5 601.5,626.67854 601.5,460.3679 L 601.5,1.5 L 1.5,1.5 z "
       id="path2346" />
  </g>
  <g
     inkscape:groupmode="layer"
     id="layer4"
     inkscape:label="Contour final"
     style="display:inline"
     sodipodi:insensitive="true">
    <path
       style="fill:none;fill-opacity:1;stroke:#000000;stroke-width:3;stroke-miterlimit:4;stroke-dasharray:none;stroke-opacity:1"
       d="M 1.5,1.5 L 1.5,460.36794 C 1.5,626.67854 135.81454,761.5 301.49993,761.5 C 467.1854,761.5 601.5,626.67854 601.5,460.36794 L 601.5,1.5 L 1.5,1.5 z"
       id="path3239" />
  </g>
</svg>

<svg xmlns="http://www.w3.org/2000/svg" xmlns:xlink="http://www.w3.org/1999/xlink" height="763" width="603" version="1.0"><defs><radialGradient xlink:href="#a" id="b" gradientUnits="userSpaceOnUse" gradientTransform="matrix(1.21503 0 0 1.26667 -839.192 -490.49)" cx="858.042" cy="579.933" fx="858.042" fy="579.933" r="300"/><linearGradient id="a"><stop style="stop-color:#fff;stop-opacity:.3137255" offset="0"/><stop offset=".19" style="stop-color:#fff;stop-opacity:.25098041"/><stop style="stop-color:#6b6b6b;stop-opacity:.1254902" offset=".6"/><stop style="stop-color:#000;stop-opacity:.1254902" offset="1"/></linearGradient></defs><g style="display:inline"><path d="M1.5 1.5v458.868c0 166.31 134.315 301.132 300 301.132s300-134.822 300-301.132V1.5H1.5z" style="fill:#e20909;fill-opacity:1"/></g><g style="display:inline"><path style="opacity:1;fill:#fff;fill-opacity:1;fill-rule:evenodd;stroke:#000;stroke-width:3;stroke-linecap:butt;stroke-linejoin:miter;stroke-miterlimit:4;stroke-dasharray:none;stroke-opacity:1" d="M302.469 1.5v760h-.969c-165.685 0-300-134.814-300-301.125V1.5h300.969zM301.5 107 14.25 547.438c11.737 39.064 31.147 74.78 56.5 105.375L301.5 299l230.75 353.813c25.353-30.595 44.763-66.311 56.5-105.375L301.5 107z"/><path d="M751 543h36l-18 18-18-18z" style="opacity:1;fill:#fff;fill-opacity:1;fill-rule:evenodd;stroke:#000;stroke-width:1;stroke-linecap:butt;stroke-linejoin:miter;stroke-miterlimit:4;stroke-dasharray:none;stroke-opacity:1" transform="matrix(3.2726 0 0 3.2726 -2039.052 -1686.118)"/><path d="M762.419 544.735 745 568c-6 9 1 16 5 10l12-21-12 21c-3 6 11 12 13 5l3-25-3 25c0 8 16.47 6 15-1l-7-24 7 24c1 5 14 3 11-3l-13-21 13 21c3 5 13-1 8.648-6L775 544.58c-4-5.58-8-5.58-12.581.155z" style="opacity:1;fill:#fff;fill-opacity:1;fill-rule:evenodd;stroke:#000;stroke-width:1;stroke-linecap:butt;stroke-linejoin:miter;stroke-miterlimit:4;stroke-dasharray:none;stroke-opacity:1" transform="matrix(3.2726 0 0 3.2726 -2039.052 -1686.118)"/><g style="fill:#e20909;fill-opacity:1"><path style="opacity:1;fill:#e20909;fill-opacity:1;fill-rule:evenodd;stroke:#000;stroke-width:1;stroke-linecap:butt;stroke-linejoin:miter;stroke-miterlimit:4;stroke-dasharray:none;stroke-opacity:1" d="M751 543h36l-18 18-18-18z" transform="matrix(3.2726 0 0 3.2726 -2402.31 -1686.118)"/><path style="opacity:1;fill:#e20909;fill-opacity:1;fill-rule:evenodd;stroke:#000;stroke-width:1;stroke-linecap:butt;stroke-linejoin:miter;stroke-miterlimit:4;stroke-dasharray:none;stroke-opacity:1" d="M762.419 544.735 745 568c-6 9 1 16 5 10l12-21-12 21c-3 6 11 12 13 5l3-25-3 25c0 8 16.47 6 15-1l-7-24 7 24c1 5 14 3 11-3l-13-21 13 21c3 5 13-1 8.648-6L775 544.58c-4-5.58-8-5.58-12.581.155z" transform="matrix(3.2726 0 0 3.2726 -2402.31 -1686.118)"/></g><path d="M751 543h36l-18 18-18-18z" style="opacity:1;fill:#fff;fill-opacity:1;fill-rule:evenodd;stroke:#000;stroke-width:1;stroke-linecap:butt;stroke-linejoin:miter;stroke-miterlimit:4;stroke-dasharray:none;stroke-opacity:1" transform="matrix(3.2726 0 0 3.2726 -2216.681 -1244.317)"/><path d="M762.419 544.735 745 568c-6 9 1 16 5 10l12-21-12 21c-3 6 11 12 13 5l3-25-3 25c0 8 16.47 6 15-1l-7-24 7 24c1 5 14 3 11-3l-13-21 13 21c3 5 13-1 8.648-6L775 544.58c-4-5.58-8-5.58-12.581.155z" style="opacity:1;fill:#fff;fill-opacity:1;fill-rule:evenodd;stroke:#000;stroke-width:1;stroke-linecap:butt;stroke-linejoin:miter;stroke-miterlimit:4;stroke-dasharray:none;stroke-opacity:1" transform="matrix(3.2726 0 0 3.2726 -2216.681 -1244.317)"/><g style="fill:#e20909;fill-opacity:1"><path style="opacity:1;fill:#e20909;fill-opacity:1;fill-rule:evenodd;stroke:#000;stroke-width:1;stroke-linecap:butt;stroke-linejoin:miter;stroke-miterlimit:4;stroke-dasharray:none;stroke-opacity:1" d="M751 543h17.47l.53 18-18-18z" transform="matrix(3.2726 0 0 3.2726 -2216.681 -1244.317)"/><path style="opacity:1;fill:#e20909;fill-opacity:1;fill-rule:evenodd;stroke:#000;stroke-width:1;stroke-linecap:butt;stroke-linejoin:miter;stroke-miterlimit:4;stroke-dasharray:none;stroke-opacity:1" d="M762.419 544.735 745 568c-6 9 1 16 5 10l12-21-12 21c-3 6 11 12 13 5l3-25-3 25c0 3.562 3.266 5.142 6.76 5.18l-.339-47.743c-2.226-.222-4.53 1.202-7.002 4.298z" transform="matrix(3.2726 0 0 3.2726 -2216.681 -1244.317)"/></g></g><g style="display:inline"><path style="fill:url(#b);fill-opacity:1" d="M1.5 1.5v458.868c0 166.31 134.315 301.132 300 301.132s300-134.821 300-301.132V1.5H1.5z"/></g><g style="display:inline"><path style="fill:none;fill-opacity:1;stroke:#000;stroke-width:3;stroke-miterlimit:4;stroke-dasharray:none;stroke-opacity:1" d="M1.5 1.5v458.868c0 166.31 134.315 301.132 300 301.132s300-134.821 300-301.132V1.5H1.5z"/></g></svg>
